assets/Womans clothes/Flat/womans_clothes_flat.svg

<svg width="32" height="32" viewBox="0 0 32 32" fill="none" xmlns="http://www.w3.org/2000/svg">
<path d="M22.2899 9.3C23.0822 9.31781 23.8661 9.46648 24.6099 9.74C26.273 10.6247 27.8885 11.5961 29.4499 12.65C29.6277 12.7665 29.772 12.9274 29.8685 13.1169C29.965 13.3063 30.0103 13.5177 29.9999 13.73C29.8999 15.49 28.7477 20.0039 24.0077 20.0039V28.7227C24.0079 28.9206 23.9407 29.1126 23.817 29.2671C23.6934 29.4217 23.5208 29.5294 23.3277 29.5727C18.4664 30.6776 13.5412 30.6849 8.67991 29.58C8.48592 29.5385 8.31224 29.4312 8.18831 29.2763C8.06438 29.1214 7.99782 28.9284 7.99991 28.73V20.0078C3.25991 20.0078 1.99991 15.49 1.91991 13.73C1.90954 13.5177 1.95484 13.3063 2.05131 13.1169C2.14778 12.9274 2.29208 12.7665 2.46991 12.65C4.05727 11.5936 5.69958 10.6223 7.38991 9.74C8.05627 9.47189 8.76256 9.31644 9.47991 9.28L10.7699 9.79L11.0299 10.24C13.0299 13.85 19.0299 14.09 21.0299 10.47L21.3099 9.85L22.2899 9.3Z" fill="#FF6DC6"/>
<path d="M9.91992 9.29001L16.1999 15.89L21.4199 9.30001C17.8711 10.6149 13.9687 10.6149 10.4199 9.30001L9.91992 9.29001Z" fill="#BB1D80"/>
<path d="M16.7299 15.92C16.6362 16.0231 16.5219 16.1055 16.3945 16.1619C16.2671 16.2183 16.1293 16.2474 15.9899 16.2474C15.8506 16.2474 15.7128 16.2183 15.5853 16.1619C15.4579 16.1055 15.3436 16.0231 15.2499 15.92L9.40991 9.28H10.4099L15.4099 14.9C15.4784 14.9768 15.5624 15.0383 15.6563 15.0805C15.7502 15.1226 15.852 15.1443 15.9549 15.1443C16.0578 15.1443 16.1596 15.1226 16.2535 15.0805C16.3475 15.0383 16.4314 14.9768 16.4999 14.9L21.4199 9.29H22.3299L16.7299 15.92Z" fill="#F70A8D"/>
</svg>

<svg xmlns="http://www.w3.org/2000/svg" width="32" height="32" fill="none"><path fill="#FF6DC6" d="M22.29 9.3a7.19 7.19 0 0 1 2.32.44 53.89 53.89 0 0 1 4.84 2.91 1.22 1.22 0 0 1 .55 1.08c-.1 1.76-1.252 6.274-5.992 6.274v8.719a.87.87 0 0 1-.68.85 32.779 32.779 0 0 1-14.648.007.86.86 0 0 1-.68-.85v-8.722c-4.74 0-6-4.518-6.08-6.278a1.22 1.22 0 0 1 .55-1.08 53.884 53.884 0 0 1 4.92-2.91 6.48 6.48 0 0 1 2.09-.46l1.29.51.26.45c2 3.61 8 3.85 10 .23l.28-.62.98-.55Z"/><path fill="#BB1D80" d="m9.92 9.29 6.28 6.6 5.22-6.59a15.83 15.83 0 0 1-11 0l-.5-.01Z"/><path fill="#F70A8D" d="M16.73 15.92a1 1 0 0 1-1.48 0L9.41 9.28h1l5 5.62a.733.733 0 0 0 1.09 0l4.92-5.61h.91l-5.6 6.63Z"/></svg>
